X:1
T: Jockie Johnstone
C:C Sherrit
R:Jig
Q:180
K:D
M:6/8
L:1/16
A2|:F2A2F2 D4d2|c2e2c2 d4A2|G2A2B2 A2G2F2|E6E4A2|
F2A2F2 D4d2|c2e2c2 d4A2|B2G2B2 A2G2E2|D6D4A2:|
|:d2A2d2 f4a2|e2c2e2 d4c2|B2G2B2 A2G2F2|
|1E6 E4A2|d2A2d2 f4a2|e2c2e2 d4c2|B2c2d2 c2d2e2|d6d4A2:|
|2E6 E2A2G2|F2G2A2 G2A2B2|c2e2c2 d4A2|B2G2B2 A2G2E2|D6D4||
